dist/landing-a/assets/images/upload.svg

<svg width="21" height="20" viewBox="0 0 21 20" fill="none" xmlns="http://www.w3.org/2000/svg">
<path d="M5.5 9C4.57003 9 4.10504 9 3.72354 9.10222C2.68827 9.37962 1.87962 10.1883 1.60222 11.2235C1.5 11.605 1.5 12.07 1.5 13V14.2C1.5 15.8802 1.5 16.7202 1.82698 17.362C2.1146 17.9265 2.57354 18.3854 3.13803 18.673C3.77976 19 4.61984 19 6.3 19H14.7C16.3802 19 17.2202 19 17.862 18.673C18.4265 18.3854 18.8854 17.9265 19.173 17.362C19.5 16.7202 19.5 15.8802 19.5 14.2V13C19.5 12.07 19.5 11.605 19.3978 11.2235C19.1204 10.1883 18.3117 9.37962 17.2765 9.10222C16.895 9 16.43 9 15.5 9M14.5 5L10.5 1M10.5 1L6.5 5M10.5 1V13" stroke="black" stroke-width="2" stroke-linecap="round" stroke-linejoin="round"/>
</svg>

<svg width="21" height="20" fill="none" xmlns="http://www.w3.org/2000/svg"><path d="M5.5 9c-.93 0-1.395 0-1.776.102a3 3 0 00-2.122 2.121C1.5 11.605 1.5 12.07 1.5 13v1.2c0 1.68 0 2.52.327 3.162a3 3 0 001.311 1.311C3.78 19 4.62 19 6.3 19h8.4c1.68 0 2.52 0 3.162-.327a3 3 0 001.311-1.311c.327-.642.327-1.482.327-3.162V13c0-.93 0-1.395-.102-1.777a3 3 0 00-2.122-2.12C16.895 9 16.43 9 15.5 9m-1-4l-4-4m0 0l-4 4m4-4v12" stroke="#000" stroke-width="2" stroke-linecap="round" stroke-linejoin="round"/></svg>
